packages/gamut-icons/src/lock.svg

<?xml version="1.0" encoding="utf-8"?>
<!-- Generated by IcoMoon.io -->
<!DOCTYPE svg PUBLIC "-//W3C//DTD SVG 1.1//EN" "http://www.w3.org/Graphics/SVG/1.1/DTD/svg11.dtd">
<svg version="1.1" xmlns="http://www.w3.org/2000/svg" xmlns:xlink="http://www.w3.org/1999/xlink" width="32" height="32" viewBox="0 0 32 32">
<path fill="#444" d="M26 13h-2v-2c0-6-2.8-10-8-10s-8 4-8 10v2h-2c-1 0-2 1-2 2.2v13.8c0 1.2 1 2 2 2h20c1 0 2-0.8 2-2v-14c0-1.2-1-2-2-2zM10 11c0-2.4 0.6-8 6-8s6 5.6 6 8v2h-12v-2zM26 29h-20v-14h20v14z"></path>
</svg>

<svg xmlns="http://www.w3.org/2000/svg" viewBox="0 0 32 32">
    <path fill="#444" d="M26 13h-2v-2c0-6-2.8-10-8-10S8 5 8 11v2H6c-1 0-2 1-2 2.2V29c0 1.2 1 2 2 2h20c1 0 2-.8 2-2V15c0-1.2-1-2-2-2zm-16-2c0-2.4.6-8 6-8s6 5.6 6 8v2H10v-2zm16 18H6V15h20v14z"/>
</svg>
